X:2227
T:Juan y Jaggad Keear 
C:Thomas Crellin, Peel
C:Traditional
O:Isle of Man
Z:Dr.J.Clague
B:Kiaull Vannin #227
N:See also KV #397. 
N:Note by Clague: "Moore's version has Bb not B thus excluding it from Dorian."[It does however make it Aeolian]
M:2/4 
L:1/8 
Q:160 
K:D 
GFGA|BBBA|GFGA|BE E2|GFGA|BcBA|GEFG|E2 E2| 
EFGA|B2 B2|EFGA|B2 B2|GFGA|BcBA|GEFG|E2 E2|| 

